assets/qdrant/mono.svg

<svg viewBox="0 0 24 24" xmlns="http://www.w3.org/2000/svg"><path d="m12 16.5 3.897-2.25v-4.5l-3.897-2.25-3.897 2.25v4.5zm-10.393 1.5 10.393 6 3.897-2.25v-4.5l-3.897 2.25-6.495-3.75v-7.5l6.495-3.75 6.495 3.75v15l3.898-2.25v-15l-10.393-6-10.393 6z"/></svg>

<svg xmlns="http://www.w3.org/2000/svg" viewBox="0 0 24 24"><path d="m12 16.5 3.897-2.25v-4.5L12 7.5 8.103 9.75v4.5zM1.607 18 12 24l3.897-2.25v-4.5L12 19.5l-6.495-3.75v-7.5L12 4.5l6.495 3.75v15L22.393 21V6L12 0 1.607 6z"/></svg>
